!!!Genre:	Sher
!!!Mode:	Freygish
!!!Listening/dance:	dance
!!!One_Mode:	no
**kern
*I"P1
*clefG2
*k[b-e-a-]
*G:frey
*M2/4
*>A
=1
4.g
8a-
=2
8bnL
8cc
8dd
8ee-J
=3
24ddLL
24ee-
24ddJJ
4cc
8bn
=4
4cc
8r
16ccLL
16ccJJ
=5
8ccL
8f
8g
8a-J
=6
8bnL
8cc
8dd
8ee-J
=7
8ffL
8ddJ
16ee-LL
16ddJ
8ccJ
=8
8ddL
8bnJ
16ccLL
16bJ
8a-J
=9
4.g
8a-
=10
8bnL
8cc
8dd
8ee-J
=11
24ddLL
24ee-
24ddJJ
4cc
8bn
=12
4cc
8r
16ccLL
16ccJJ
=13
8ccL
8f
8g
8a-J
=14
*^
8bnL	(16bLL
.	16a-JJ)
8gJ	8ryy
8a-L	(16a-LL
.	16gJJ)
8fJ	8ryy
*v	*v
=15
2g
=16
4g
4r
=17:|!
*>bM
*c:
*>B
!LO:TX:a:i:t=C-minor
8dd
4gg
8gg
=18
8ggL
8ff
8ee-
8ddJ
=19
(16ffLL
16ee-J)
[8ee-J
8ee-L]
8ddJ
=20
(16ffLL
16ee-J)
8ee-J
4ee-
*>eM
*G:frey
!LO:TX:a:i:t=G-freygish
=21
16ddLL
16ee-JJ
4ff
8ff
=22
8ffL
8ee-
8dd
8ccJ
=23
4dd
4gg
=24
4dd
4bn
*>bM
*c:
!LO:TX:a:i:t=C-minor
=25
8r
4gg
8gg
=26
8ggL
8ff
8ee-
8ddJ
=27
8ff
4ee-
8dd
=28
4cc
4r
*>eM
*G:frey
!LO:TX:a:i:t=G-freygish
=29
8ccL
8f
8g
8a-J
=30
8bnL
8cc
8b
8a-J
=31
2g
=32
2g
==
*-
